X:1
T:Eri gia tutta mia
T:Eri gia tutta mia
T:Bartolomeo Spighi da Prato
C:Bartolomeo Spighi da Prato
%%score 1 { 2 | 3 }
L:1/8
Q:1/4=120
M:3/2
K:F
V:1 treble nm="Soprano" snm="S"
V:2 treble nm="MusicXML Part"
V:3 bass 
V:1
"^Source: Musical Concerto d'arie e canzonette---Fiorenza---Z.Pignoni---1641.\nEditor: André Vierendeels (28/09/08)\nContinuo: André Vierendeels" z2 A2 G2 F2 B2"^ARIETTA" A2 | %1
w: E- ri gia tut- ta|
w: Sol per me gl'oc- chi|
w: Il gio- ir del bel|
 G6 F6 | z2 d2 c2 B2 _e2 d2 | c6 B6 | z2 d2 e2 fg fe d2 | c4 f2 B2 B2 z2 | z2 F2 G2 A2 G2 F2 | %7
w: mi- a,|e- ri gia tut- ta|mi- a|mi- a quest' _ _ _ alm'|e quel co- re|hor da me si des-|
w: bel- li|ri- vol- ge- vi ri-|den- ti|per me d'o- * * * ro|i ca- pel- li|si spie- ga- va- no'ai|
w: vi- so|ah che piu tu non|mi- ri|il mio can- * * * to|il mio ri- so|e con- ver- so'in mar-|
 E6 D2 F2 E2 | DEFD GF EF GEAG | FEFG AB c2 B2 A2 |[M:3/4] G6 |[M:2/4] F4 ::[M:4/4] z2 cc ^c2 cc | %13
w: vi- a nuo- v'af-|fet _ _ _ _ _ _ _ _ _ _ _|_ _ _ _ _ _ _ to d'a-|mo-|re.|O bel- lez' e va-|
w: ven- ti, o fu-|ga- * * * * * * * * * * *|* * * * * * * ti con-|cen-|ti,|O dol- cez- za, o|
w: ti- ri, o dis-|* per- * * * * * * * * * *|* * * * * * * si so-|spi-|ri,|O spa- ri- ta pie-|
 d4 d2 AA | B2 GG A4- |[M:2/4] A>F E>F z4 |[M:3/4] D6 |[M:3/2] A4 G2 F2 B2 A2 | G6 F4 c2 | %19
w: lo- re o mi-|ra- bil- con- stanz'|_ o ve- sei|tu,|e- ri gia tut- ta|mi- a hor|
w: bel- ta o dol-|cez- za'o- bel- ta|_ do- ve sei|tu,-|||
w: ta, do- ve sei|tu [do- ve sei]|_ do- ve sei|tu,-|||
 BABG cB A4 B2 | G4 d2 _e4 c2 | d4 z2 F4 F2 | G4 _E2 E2 D2 E2 | C6 c6- | c4 c2 d2 dcBA | %25
w: non _ _ _ _ _ _ sei|piu non piu non|piu ahi che|mi- a non sei- *|piu, ahi|_ che mi- a _ _ _|
w: ||||||
w: ||||||
[M:3/4] G2 G2 A2 | F6 :| z6 |] %28
w: non sei _|piu.||
w: |||
w: |||
V:2
 [FAc]6 [DFB]6 | [EGc]6 [FAc]6 | [DFB]6 [GB]6 | [FAc]6 [DFB]6 | [DFd]6 [FAd]6 | [FAc]6 [D-FB-]6 | %6
 [DFB]6 [FA]2 [GB]4 | [EAc]6 [FA]6 | [DB]6 [Gc]6 | [F-G-A]6 [FA]2 [DF]4 |[M:3/4] [CEG]6 | %11
[M:2/4] [CFA]4 ::[M:4/4] [FAc]4 [G^c]4 | [FA]8 | [DFB]4 [FAc]4 |[M:2/4] [FA]2 [EA]2 x4 | %16
[M:3/4] [^FA]6 |[M:3/2] [FAc]6 [FB]6 | [EGc]6 [FAc]6 | [DGB]6 [FA]6 | [DB]6 [_EGc]4 [FAc]2 | %21
 [FB]6 [DB]6 | [GB]6 [CG]6 | [Gc]6 [EAc]6 | [FAc]6 [DB]6 |[M:3/4] [EG]6 | [FAc]6 :| z6 |] %28
V:3
 F,4 E,2 D,2 B,,4 | C,6 F,6 | B,,4 C,2 D,2 _E,4 | F,6 B,,6 | z2 B,,2 C,2 D,4 B,,2 | %5
 F,4 F,,2 B,,2 G,2 A,2 | B,6 F,2 G,4 | A,6 D,2 D,2 C,2 | B,,4 G,,2 C,4 A,,2 | D,4 C,2 A,,2 B,,4 | %10
[M:3/4] C,6 |[M:2/4] F,4 ::[M:4/4] F,4"^6" E,4 | D,4 D,3 C, | B,,2 C,2 F,4 |[M:2/4] D,2 A,,2 x4 | %16
[M:3/4] D,6 |[M:3/2] F,4 E,2 D,2 B,,4 | C,6 F,6 | G,4 C,2 D,6 | G,6 _E,4 F,2 | %21
 B,,2 G,2 A,2 B,4 A,2 | G,4 C,2 G,6 | C,2 C2 B,2"^Note: original keys: Ut1st, Fa 4rth" A,4 G,2 | %24
 F,4 E,2 D,2 B,,4 |[M:3/4] C,6 | F,,6 :| z6 |] %28

